dist/img/nav.svg

<svg width="22" height="27" viewBox="0 0 22 27" fill="none" xmlns="http://www.w3.org/2000/svg">
<path fill-rule="evenodd" clip-rule="evenodd" d="M11 27C11 27 0 21.4726 0 10.5652C0 4.73028 4.92494 0 11 0C17.0751 0 22 4.73028 22 10.5652C22 21.4726 11 27 11 27ZM11 1.17391C5.60878 1.17391 1.22222 5.38709 1.22222 10.5652C1.22222 19.2275 8.83789 24.3593 11.0018 25.6424C13.1676 24.3646 20.7778 19.2551 20.7778 10.5652C20.7778 5.38709 16.3912 1.17391 11 1.17391ZM11 15.8478C7.96217 15.8478 5.5 13.483 5.5 10.5652C5.5 7.64746 7.96217 5.28261 11 5.28261C14.0378 5.28261 16.5 7.64746 16.5 10.5652C16.5 13.483 14.0378 15.8478 11 15.8478ZM11 6.45652C8.63744 6.45652 6.72222 8.29604 6.72222 10.5652C6.72222 12.8344 8.63744 14.6739 11 14.6739C13.3626 14.6739 15.2778 12.8344 15.2778 10.5652C15.2778 8.29604 13.3626 6.45652 11 6.45652Z" fill="#D1327F"/>
</svg>

<svg width="22" height="27" fill="none" xmlns="http://www.w3.org/2000/svg"><path fill-rule="evenodd" clip-rule="evenodd" d="M11 27S0 21.473 0 10.565C0 4.73 4.925 0 11 0s11 4.73 11 10.565C22 21.473 11 27 11 27Zm0-25.826c-5.391 0-9.778 4.213-9.778 9.391 0 8.662 7.616 13.794 9.78 15.077 2.166-1.277 9.776-6.387 9.776-15.077 0-5.178-4.387-9.391-9.778-9.391Zm0 14.674c-3.038 0-5.5-2.365-5.5-5.283S7.962 5.283 11 5.283s5.5 2.364 5.5 5.282-2.462 5.283-5.5 5.283Zm0-9.391c-2.363 0-4.278 1.839-4.278 4.108 0 2.27 1.915 4.109 4.278 4.109 2.363 0 4.278-1.84 4.278-4.109S13.363 6.457 11 6.457Z" fill="#D1327F"/></svg>
